X:1
T:Your Own
T:Your Own
T:Fanny Birdsall, 1899
T:Mrs. L. G. McVean, 1880
T:Public Domain Courtesy of the Cyber Hymnal™
T:Public Domain Courtesy of the Cyber Hymnal™
C:Fanny Birdsall, 1899
Z:Public Domain
Z:Courtesy of the Cyber Hymnal™
%%score ( 1 2 ) ( 3 4 )
L:1/8
Q:1/4=95
M:6/8
K:Bb
V:1 treble 
V:2 treble 
V:3 bass 
V:4 bass 
V:1
 [DF][B,D][CE] [DF]2 [DB] | [DB]3 [CA]2 [CE] | ([CE][=B,D])[CE] [EA]2 [EG] | [DF]3- [DF]2 [A,C] | %4
w: 1.~What if your own were|starv- ing, Faint-|ing * with fa- mine,|pain; * And|
w: 2.~What if your own were|thirst- ing, And|never * a drop would|gain, * And|
w: 3.~What if your own were|dark- ened, With-|out * one cheer- ing|ray, * And|
w: 4.~What if your own were|pris- oned, Far|in * a hos- tile|land, * And|
 [A,C]2 [B,D] [CE]2 ([=B,D]/[CE]/) | [EG]2 [DF] [DB]2 [CA] | [=Ec]2 [EB] [FA]2 [EG] | %7
w: you should know where *|gold- en grow, Rich|fruits and rip- ened|
w: you could tell where~a *|spark- ling well Poured|forth me- lo- dious|
w: you a- lone could *|show where shone The|pure, sweet light of|
w: the on- ly key *|to set them free,|Was held at your|
 F3- F2 [B,D]/[CE]/ | [DF]2 [DB] [EA]2 [EG]/[EF]/ | [EF]2 [Ec] [DB]2 [EG] | %10
w: grain; * Would you|hear their wail as a|thrice- told tale, And|
w: rain; * Would you|turn a- side while they|gasped and died, And|
w: day; * Would you|leave them there in their|dark des- pair, And|
w: com- * mand; Would|you breathe free air while|they sti- fled there,|
 [DF][DF][DF] [CE]2 [A,C] | B,3- B,2 ||"^Refrain" F>=EF A3- | [EA]3 F=EF | B6 D3 | %15
w: turn to your feast a-|gain? *||||
w: le- ave them to their|pain? *|They are Christ’s own,|* they are your|own, Soon|
w: sing on your sun- lit|way? *||||
w: And wait and fold your|hands? *||||
 [EB][EB][EB] [EA]2 [EG] | [DF]6 | [EA]>[EG][EF] ([CA][DB])[Ec] | B6 |] %19
w: ||||
w: * will their hopes be|flown,|Res- cue them ere * they’re|gone.|
w: ||||
w: ||||
V:2
 x6 | x6 | x6 | x6 | x6 | x6 | x6 | F3- F2 x | x6 | x6 | x6 | B,3- B,2 || x3 =EEE | x6 | DDD x6 | %15
 x6 | x6 | x6 | (D2 E D3) |] %19
V:3
 [B,,B,][B,,F,][B,,F,] [B,,B,]2 [B,,F,] | F,3 F,2 F, | F,F,F, F,2 [F,A,] | %3
w: ~ ~ ~ ~ ~|~ ~ ~|~ ~ ~ ~ ~|
 [B,,B,]3- [B,,B,]2 [F,A,] | [F,A,]2 [F,B,] [F,A,]2 F,/F,/ | [B,,B,]2 [B,,B,] [B,,F,]2 [C,F,] | %6
w: ~ * ~|~ ~ ~ ~ ~|~ ~ ~ ~|
 [C,G,]2 [C,G,] [C,C]2 [C,B,] | [F,A,]3- [F,A,]2 [B,,F,]/[B,,F,]/ | %8
w: ~ ~ ~ ~|~ * ~ ~|
 [B,,B,]2 [B,,F,] F,2 [F,A,]/[F,A,]/ | [F,A,]2 [F,A,] [B,,B,]2 [E,B,] | %10
w: ~ ~ ~ ~ ~|~ ~ ~ ~|
 [F,B,][F,B,][F,B,] F,2 [F,,E,] | [B,,D,]3- [B,,D,]2 || z3 [F,C][F,C][F,C] | [F,C]3 z3 | %14
w: ~ ~ ~ ~ They|are *|Christ’s own, they|are|
 [B,,F,][B,,F,][B,,F,] [B,,F,]3 x3 | [E,G,][E,G,][E,G,] [E,A,]2 [E,B,] | [B,,B,]6 | %17
w: your own ~ ~|~ ~ ~ ~ ~|~|
 [F,C]>[F,B,][F,A,] F,2 [F,A,] | (B,2 G,) F,3 |] %19
w: ~ ~ ~ they’re gone||
V:4
 x6 | F,3 F,2 F, | (F,F,)F, F,2 x | x6 | x5 (F,/F,/) | x6 | x6 | x6 | x3 F,2 x | x6 | x3 F,2 x | %11
 x5 || x6 | x6 | x9 | x6 | x6 | x3 F,2 x | B,,4 x2 |] %19

